!!!OTL: Yuanxiao guandeng
!!!ARE: Asia, China,ÿGuizhou, Dushan
!! II, 154
!!!SCT: C1500
!!!YEM: Copyright 1995, estate of Helmut Schaffrath.
**kern
*ICvox
*Ivox
!! Mixed meters:  2/4; 3/4
*M3/4
*k[f#]
*G:
{16dd
16b
16ee
16dd
8b
8b
=1
16dd
16b
16ee
16dd
4b
=2
8ee
16ee
16dd
16b
16a
16b
16dd
=3
8ee
8ee
16b
16dd
16b
16dd
=4
16ee
16dd
8ee
8ee
8e}
=5
{16a
16g
16a
16g
8a
16b
16dd
=6
8dd
8e
16dd
16ee
16dd
16b
=7
8a
16g
16e
16a
16g
16a
16dd
=8
8b
8b
8b
16e
16d}
=9
{4dd
8b
8dd
=10
8a
16b
16a
16g
16b
16a
16g
4e
=11
*M2/4
16g
16e
16g
16b
8a
16a
16g
=12
8g
8g
16a
16g
8e
=13
8d
8d
16b
16dd
16ee
16dd
=14
8ee
8ee
8ee
8e}
==
!!!AGN: Wuge, Huadeng diao
!!!AMT: irregular
!!!AIN: vox
!!!EED: Helmut Schaffrath
!!!EEV: 1.0
*-
